X:100
M:4/4
L:1/4
K:D
D D F F | A2 A2 | B.- B B B | A2 F2 | A3/2 A/ A A | d.- d c A | E A B3/2 A/ | A4 | D D F F | A.- A A2 | B3/2 B/ B B | A2 A2 | d2 A A | B2 F2 | !sintro!G E E3/2 D/ | D4 !eintro!|]
